X: 1
T: Arthur Darley's Swedish
C: Arthur Darley
M: 6/8
R: Jig
L: 1/8
S: Craig Harrison
K: D
e|:fgf edc|d2A BAG|FED EDC|DA,B, CDE|
Ddd Aee|Aff Agg|fed edc|1 d3 d2e:|2 d3 d=c_B||
|:A2=f fef|A2=f fef|A=ff Agg|Aaa A_bb|
A2=f fef|A2=f feg| fed edc|1 d3 d=c_B:|2 d3 d2|] 